static/images/pip.svg

<svg xmlns="http://www.w3.org/2000/svg" width="30" height="30" fill="none"><path fill="#fff" d="M23.7 12.8h-1.5V8.7c0-1.8-1-2.7-2.8-2.7H6.8C5 6 4 6.9 4 8.7v8.7c0 1.8 1 2.7 2.8 2.7h5.5v1c0 1.8.9 2.7 2.8 2.7h8.6c1.8 0 2.8-.9 2.8-2.7v-5.7c0-1.8-1-2.6-2.8-2.6Zm-3 0h-5.6c-1.8 0-2.8.9-2.8 2.7v3.2H6.8c-.9 0-1.3-.4-1.3-1.3V8.8c0-.9.4-1.3 1.3-1.3h12.6c.9 0 1.3.4 1.3 1.3v4Z"/><path fill="#fff" d="M11.4 12.7c0 .2 0 .4-.1.5-.1.1-.3.2-.4.2h-.1l-3-.5c-.2 0-.4-.2-.5-.4 0-.2 0-.4.2-.6l.8-.8-1.4-1.4c-.2-.2-.2-.7 0-.9.2-.2.6-.2.9 0l1.4 1.4.8-.8c.2-.2.4-.2.6-.2.2 0 .4.3.4.5l.5 3h-.1Z"/></svg>

<svg width="30" height="30" viewBox="0 0 30 30" fill="none" xmlns="http://www.w3.org/2000/svg">
<path d="M23.7 12.8H22.2V8.7C22.2 6.9 21.2 6 19.4 6H6.8C5 6 4 6.9 4 8.7V17.4C4 19.2 5 20.1 6.8 20.1H12.3V21.1C12.3 22.9 13.2 23.8 15.1 23.8H23.7C25.5 23.8 26.5 22.9 26.5 21.1V15.4C26.5 13.6 25.5 12.8 23.7 12.8ZM20.7 12.8H15.1C13.3 12.8 12.3 13.7 12.3 15.5V18.7H6.8C5.9 18.7 5.5 18.3 5.5 17.4V8.8C5.5 7.9 5.9 7.5 6.8 7.5H19.4C20.3 7.5 20.7 7.9 20.7 8.8V12.8Z" fill="white"/>
<path d="M11.4 12.7C11.4 12.9 11.4 13.1 11.3 13.2C11.2 13.3 11 13.4 10.9 13.4C10.8 13.4 10.9 13.4 10.8 13.4L7.8 12.9C7.6 12.9 7.4 12.7 7.3 12.5C7.3 12.3 7.3 12.1 7.5 11.9L8.3 11.1L6.9 9.70002C6.7 9.50002 6.7 9.00002 6.9 8.80002C7.1 8.60002 7.5 8.60002 7.8 8.80002L9.2 10.2L10 9.40002C10.2 9.20002 10.4 9.20002 10.6 9.20002C10.8 9.20002 11 9.50002 11 9.70002L11.5 12.7H11.4Z" fill="white"/>
</svg>
